svgs/sharp-light/display-medical.svg

<svg xmlns="http://www.w3.org/2000/svg" viewBox="0 0 576 512"><!--! Font Awesome Pro 6.4.0 by @fontawesome - https://fontawesome.com License - https://fontawesome.com/license (Commercial License) Copyright 2023 Fonticons, Inc. --><path d="M544 32V384H344.3c-.2 0-.4 0-.6 0H232.3c-.2 0-.4 0-.6 0H32V32H544zM32 416H213.1l-10.7 64H144 128v32h16 72H360h72 16V480H432 373.6l-10.7-64H544h32V384 32 0H544 32 0V32 384v32H32zm202.9 64l10.7-64h84.9l10.7 64H234.9zM256 96H240v16 48H192 176v16 64 16h16 48v48 16h16 64 16V304 256h48 16V240 176 160H384 336V112 96H320 256zm16 80V128h32v48 16h16 48v32H320 304v16 48H272V240 224H256 208V192h48 16V176z"/></svg>

<svg xmlns="http://www.w3.org/2000/svg" viewBox="0 0 576 512"><!--! Font Awesome Pro 6.6.0 by @fontawesome - https://fontawesome.com License - https://fontawesome.com/license (Commercial License) Copyright 2024 Fonticons, Inc. --><path d="M544 32l0 352-199.7 0c-.2 0-.4 0-.6 0l-111.5 0c-.2 0-.4 0-.6 0L32 384 32 32l512 0zM32 416l181.1 0-10.7 64L144 480l-16 0 0 32 16 0 72 0 144 0 72 0 16 0 0-32-16 0-58.4 0-10.7-64L544 416l32 0 0-32 0-352 0-32L544 0 32 0 0 0 0 32 0 384l0 32 32 0zm202.9 64l10.7-64 84.9 0 10.7 64-106.2 0zM256 96l-16 0 0 16 0 48-48 0-16 0 0 16 0 64 0 16 16 0 48 0 0 48 0 16 16 0 64 0 16 0 0-16 0-48 48 0 16 0 0-16 0-64 0-16-16 0-48 0 0-48 0-16-16 0-64 0zm16 80l0-48 32 0 0 48 0 16 16 0 48 0 0 32-48 0-16 0 0 16 0 48-32 0 0-48 0-16-16 0-48 0 0-32 48 0 16 0 0-16z"/></svg>
